X:1
T:Polska
R:Polska
M:3/4
L:1/8
B:http://www.smus.se/earkiv/fmk/browselarge.php?lang=sw&katalogid=Hs+11&bildnr=00061
N:Jämför + och +
Z:Nils L
K:Dm
.d(AF).f {g}(fe/d/) | .e(^cA).g {a}(gf/e/) | fT^c de fa | e/f/e/d/ ^c/d/e/d/ {d}c(=B/A/) |
.d(AF).f {g}(fe/d/) | .e(^cA).g {a}(gf/e/) | fT^c de fa | f/e/d/^c/ d2 D2 ::
.a(cF).a {b}(ag/f/) | .g(cE).b {c'}(ba/g/) | aA, =B,^C DF | E/F/G/E/ F2 E2 |
.d(AF).f {g}(fe/d/) | .e(^cA).g {a}(gf/e/) |.f(^c d).D (FA)| f/e/d/^c/ d2 D2 :|

